X:1
T: The Dear Meal is Cheap Again
C:
R:Reel
Q: 232
K:D
M:4/4
L:1/8
|:B|AF ED dF ED|EB BA BE EB|AF ED dg fe|dB AF AD DB|
AF ED dF ED|EB BA BE EB|AF ED dg fe|dB AF AD Df|
ab af de fd|ee ba be ef|ab af dg fe|dB AF AD Df|
ab af de fd|ee ba be ef|ab af dg fe|dB AF AD D:|
